!!!COM: Haydn, Franz Joseph
!!!OTL: String Quartet in G Major
!!!OPS: Opus 77
!!!ONM: No. 1
!!!OMD: Adagio
!!!OMV: 2
!!!SCT: H III:81
!!!SCA: Thematisch-bibliographisches Werkevererzeichnis (A. van Hoboken)
!!!YOR: Trautwein Edition
!!!ENC: Frances Bennion
!!!CDT: 1732/3/31/-1809/5/31/
!!!CNT: Oesterreich
!!!YEC: Copyright (c) 1994, 2000 Center for Computer Assisted Research in the Humanities
!!!YEM: Rights to all derivative editions reserved.
!!!YEM: Refer to licensing agreement for further details.
!!!YEN: United States of America
**kern	**kern	**kern	**kern
*k[b-e-a-]	*k[b-e-a-]	*k[b-e-a-]	*k[b-e-a-]
*E-:	*E-:	*E-:	*E-:
*clefF4	*clefC3	*clefF	*clefF
*M4/4	*M4/4	*M4/4	*M4/4
2e-	2ee-	2ee-	2ee-
4G	4g	4g	4g
4c	4cc	4cc	4cc
=2	=2	=2	=2
4..A-	4..a-	4..a-	4..a-
16F	16f	16f	16f
8D	8d	8d	8d
4r	4.r	4r	6..r
16r	.	16r	.
.	.	.	48r
16A-	.	16B-	16d
=3	=3	=3	=3
8G	2.r	8B-	8e-
8r	.	8r	8r
8D	.	8B-	8f
8r	.	8r	8r
8E-	.	8B-	8g
8r	.	8r	8r
4AA-	4f	4c	4a-
=4	=4	=4	=4
2.BB-	2e-	2B-	2g
.	8d	2r	8f
.	4.r	.	4.r
8AA-	.	.	.
8FF	.	.	.
=5	=5	=5	=5
2EE-	2e-	2ee-	2ee-
4GG	4G	4g	4g
4C	4c	4cc	4cc
=6	=6	=6	=6
4..AA-	4..A-	4..a-	4..a-
16FF	16F	16f	16f
8DD	8D	8d	8d
4r	4r	4r	6..r
16r	16r	16r	.
.	.	.	48r
16AA-	16F	16B-	16d
=7	=7	=7	=7
8GG	8G	8B-	8e-
8r	8r	8r	8r
8AA-	8c	8f	8a-
8r	8r	8r	8r
8BB-	8B-	8e-	8g
8r	8r	8r	8r
8BB-	8F	8A-	8d
8r	8r	8r	8r
=8	=8	=8	=8
4E-	4G	4G	4e-
4EE-	2.r	2.r	8r
.	.	.	8e-
2r	.	.	8g
.	.	.	8b-
.	.	.	8ee-
.	.	.	8gg
=9	=9	=9	=9
1r	2ee-	[2gg	[2bb-
.	4g	8.gg]	8.bb-]
.	.	32aa-	32ccc
.	.	32gg	32bb-
.	4cc	8.ff	8.aa-
.	.	16ee	16gg
=10	=10	=10	=10
1r	4..a-	4ff	4aa-
.	.	8.ff	8.aa-
.	16f	16gg	16bb-
.	8d	8aa-	8ccc
.	4r	4r	6..r
.	16r	16r	.
.	.	.	48r
.	16d	16aa-	16ccc
=11	=11	=11	=11
1r	8e-	8gg	8bb-
.	16r	16r	16r
.	16e-	16gg	16bb-
.	8f	8ff	8aa-
.	16r	16r	16r
.	16f	16ff	16aa-
.	8g	8ee-	8gg
.	16r	16r	16r
.	16g	16ee-	16gg
.	8a-	8cc	16ff
.	.	.	16gg
.	16r	16r	16aa-
.	16A-	16cc	16ff
=12	=12	=12	=12
1r	2.B-	2g	[2ee-
.	.	4f	16ee-]
.	.	.	16dd
.	.	.	16ff
.	.	.	16ee-
.	4r	4r	16gg
.	.	.	16ff
.	.	.	16aa-
.	.	.	16gg
=13	=13	=13	=13
2.BB-	2.f	2.d	4..aa-
.	.	.	16ff
.	.	.	16dd
.	.	.	16b-
.	.	.	16a
.	.	.	16b-
4AA-	8.d	4f	48..cc
.	.	.	48..dd
.	.	.	48..ee-
.	.	.	48..ff
.	.	.	48..gg
.	.	.	48..aa-
.	16f	.	.
.	.	.	32aa
=14	=14	=14	=14
4GG	4g	2e-	4.bb-
4G	4E-	.	.
.	.	.	8gg
4.r	4.r	4g	16ee-
.	.	.	16a
.	.	.	16b-
.	.	.	16g-
.	.	8r	16g
.	.	.	16d
8GG	8G	8e-	16e-
.	.	.	16B
=15	=15	=15	=15
4AA-	4A-	4e-	16c
.	.	.	16d
.	.	.	16e-
.	.	.	16e
2r	2r	2r	16f
.	.	.	16g
.	.	.	16a-
.	.	.	16b
.	.	.	16cc
.	.	.	16dd
.	.	.	16ee-
.	.	.	16ee
4BB-	8.d	4f	16ff
.	.	.	16gg
.	.	.	16aa-
.	16a-	.	16dd
=16	=16	=16	=16
2E-	8g	8g	4ee-
.	8e-	8g	.
.	8e-	8g	4r
.	8e-	8g	.
4GG	8e-	8g	2r
.	8e-	8g	.
4C	8e-	8g	.
.	8e-	8g	.
=17	=17	=17	=17
4..AA	8e-	8f	4r
.	8e-	8f	.
.	8e-	8f	[6..cc
.	8e-	8f	.
16EE-	.	.	.
8CC	8e-	8f	.
.	.	.	48cc]
.	.	.	16a
4.r	8e-	8f	16ee-
.	.	.	16cc
.	8e-	8f	16a
.	.	.	16f
.	8e-	8f	16e-
.	.	.	16A
=18	=18	=18	=18
4..BB-	8d-	8f	4B-
.	8d-	8f	.
.	8d-	8f	4r
.	8d-	8f	.
16FF	.	.	.
8DD-	8d-	8f	4b-
4.r	8d-	8f	.
.	8d-	8f	8.b-
.	8c	8f	.
.	.	.	16cc
=19	=19	=19	=19
4..GG-	8B-	8f	[2dd-
.	8B-	8e	.
.	8B-	8e	.
.	8B-	8e	.
16BB-	.	.	.
4D-	8B-	8e	16dd-]
.	.	.	16a
.	8B-	8e	16b-
.	.	.	16cc
4GG-	8B-	8e	16dd-
.	.	.	16cc
.	8B-	8e	16dd-
.	.	.	16b-
=20	=20	=20	=20
2FF	8B-	8e	8dd-
.	8A	8f	8cc
.	8A	8f	8cc
.	8A	8f	8cc
2r	8A	8f	8cc
.	8c	8a	8ff
.	8c	8a	8ff
.	8c	8a	8ff
=21	=21	=21	=21
8FF	8c 8e-	8a	4..gg-
8F	8e- 8c	8a	.
8F	8c 8e-	8a	.
8F	8e- 8c	8a	.
.	.	.	32ee-
.	.	.	32cc
8F	8e- 8c	8a	8a
8F	8c 8e-	8a	4.r
8F	8c 8e-	8a	.
8F	8e- 8c	8a	.
=22	=22	=22	=22
8FF	8B- 8d	8b-	[3ff
8F	8d 8B-	8b-	.
8F	8d 8B-	8b-	.
.	.	.	96ff]
.	.	.	32dd
8F	8B- 8d	8b-	16b-
.	.	.	16f
8F	8d 8B-	8b- 8d	8d
8F	8B- 8d	8b- 8d	6..r
8F	8B- 8d	8b- 8d	.
8F	8B- 8d	8d 8b-	.
.	.	.	48r
.	.	.	16bb-
=23	=23	=23	=23
8FF	8c	8e-	16bb-
.	.	.	16aa
8F	8c	8e-	16aa
.	.	.	16aa-
8F	8c	8e-	16aa-
.	.	.	16gg
8F	8c	8e-	16gg
.	.	.	16gg-
8F	8A	8e-	16gg-
.	.	.	16ff
8F	8A	8e-	16ff
.	.	.	16ee
8F	8A	8e-	16ee
.	.	.	16ff
8F	8A	8c	16gg
.	.	.	16ee-
=24	=24	=24	=24
8FF	8B-	8d	16ee-
.	.	.	16dd
8F	8B-	8d	16gg
.	.	.	16ff
8F	8B-	8d	16aa
.	.	.	16bb-
8F	8B-	8d	16ccc
.	.	.	16bb-
8F	8B-	8d	16eee-
.	.	.	16ddd
8F	8B-	8d	4r
8F	8B-	8d	.
8F	8B-	8d	16ff
.	.	.	16b-
=25	=25	=25	=25
8FF	8c	8e-	16b-
.	.	.	16a
8F	8c	8e-	16a
.	.	.	16b
8F	8c	8e-	16b
.	.	.	16cc
8F	8c	8e-	16cc
.	.	.	16dd
8F	8A	8c	16dd
.	.	.	16ee-
8F	8A	8c	16ee-
.	.	.	16gg-
8F	8A	8c	16gg-
.	.	.	16gg
8F	8A	8c	16gg
.	.	.	16ee-
=26	=26	=26	=26
8G	8A	8c	8.ee-
8G	8B-	8B-	.
.	.	.	16dd
8G	8B-	8B-	8dd
8G	8B-	8B-	16r
.	.	.	16dd
8G	8B-	8B-	8dd
8G	8B-	8B-	6..r
8F	8B-	8B-	.
8F	8B-	8B-	.
.	.	.	48r
.	.	.	16dd
=27	=27	=27	=27
8E	8G	8B-	16dd
.	.	.	16dd-
8E	8G	8B-	16dd-
.	.	.	16cc
8E	8G	8B-	16cc
.	.	.	16gg
8E	8G	8B-	16gg
.	.	.	16gg
8E	8g	8B-	16b
.	.	.	16cc
8E	8g	8B-	16dd
.	.	.	16cc
8E	8g	8B-	16cc
.	.	.	16gg
8E	8g	8B-	16gg
.	.	.	16gg
=28	=28	=28	=28
8E-	8f	8c	16a
.	.	.	16ff
8r	8r	8r	16ff
.	.	.	16ff
8D	8f	8d	16b-
.	.	.	16bb-
8r	8r	8r	16bb-
.	.	.	16bb-
8C	8f	8a	16aa
.	.	.	16eee-
8r	8r	8r	16eee-
.	.	.	16eee-
8BB-	8f	8b-	16ddd
.	.	.	16bbb-
8r	8r	8r	16bbb-
.	.	.	16bbb-
=29	=29	=29	=29
8E-	8g	8b-	8ggg
4.r	4.r	4.r	4.r
2F	4A	2c	4e-
.	4E-	.	8.c
.	.	.	16A
=30	=30	=30	=30
2BB-	8D	8B-	4B-
.	8B-	8d	.
.	8B-	8d	4r
.	8B-	8d	.
4DD	8B-	8d	2r
.	8B-	8d	.
4GG	8B-	8d	.
.	8B-	8d	.
=31	=31	=31	=31
4..EE-	8B-	8c	[3..g
.	8B-	8c	.
.	8B-	8c	.
.	8B-	8c	.
16CC	.	.	.
4..EE	8B-	8d-	.
.	.	.	24g]
.	8B-	8d-	8g
.	8B-	8d-	8a
.	8B-	8d-	8b-
16EE	.	.	.
=32	=32	=32	=32
8FF	8B-	8d	[2f
8FF	8B-	8d	.
8FF	8B-	8d	.
8FF	8B-	8d	.
8FF	8A	8e- 8c	48..f]
.	.	.	48..g
.	.	.	48..f
.	.	.	48..e
8FF	8A	8e- 8c	.
.	.	.	48..f
.	.	.	48..g
.	.	.	48..a
8FF	8A	8e- 8c	.
.	.	.	48..b-
.	.	.	48..cc
.	.	.	48..dd
.	.	.	48..ee-
8FF	8c	8e-	.
.	.	.	48..ff
.	.	.	32gg
.	.	.	32aa
=33	=33	=33	=33
8BB-	8B-	8d-	2bb-
8B-	8d-	8f	.
8B-	8d-	8f	.
8B-	8d-	8f	.
8B-	8d-	8g-	4dd-
8B-	8d-	8g-	.
8G-	8e-	8g-	4gg-
8G-	8e-	8g-	.
=34	=34	=34	=34
8A-	8c	8g-	4..ee-
8A-	8c	8g-	.
8A-	8c	8g-	.
8A-	8c	8g-	.
.	.	.	16cc
8A-	8a-	8g-	8a-
4.r	8a-	8g-	6..r
.	8a-	8g-	.
.	8a-	8g-	.
.	.	.	48r
.	.	.	16cc
=35	=35	=35	=35
1r	8a-	8f	8dd-
.	8a-	8f	16r
.	.	.	16dd-
.	8a-	8c	8ee-
.	8a-	8c	16r
.	.	.	16ee-
.	8a-	8d-	8ff
.	8a-	8d-	6..r
.	8a-	8b-	.
.	8a-	8b-	.
.	.	.	48r
.	.	.	16dd
=36	=36	=36	=36
1r	8g-	8b-	8ee-
.	8g-	8b-	16r
.	.	.	16ee-
.	8d	8b-	8ff
.	8d	8b-	16r
.	.	.	16ff
.	8e-	8b-	8gg-
.	8e-	8b-	6..r
.	8cc	8b-	.
.	8cc	8b-	.
.	.	.	48r
.	.	.	32ee
.	.	.	32gg
=37	=37	=37	=37
1r	8cc	8a-	8ff
.	8cc	8a-	16r
.	.	.	32ff
.	.	.	32aa-
.	8cc	8e	8gg
.	8cc	8e	16r
.	.	.	32gg
.	.	.	32bb-
.	8cc	8f	8aa-
.	8cc	8f	16r
.	.	.	32bb-
.	.	.	32aa-
.	8b	8d-	8gg
.	8b	8d-	8ff
=38	=38	=38	=38
8CC	8cc	8c	2ccc
8C	8g	8e	.
8C	8g	8e	.
8C	8g	8e	.
8C	8g	8cc	4ee
8C	8g	8cc	.
8C	8f	8b	4aa-
8C	8f	8b	.
=39	=39	=39	=39
8CC	8e	8cc	4..gg
8C	8e	8cc	.
8C	8e	8cc	.
8C	8e	8cc	.
.	.	.	16ee
8C	8e	8cc	8cc
8C	8e	8cc	8r
8C	8a-	8b	4ff
8C	8a-	8b	.
=40	=40	=40	=40
8CC	8g	8cc	4..ee
8C	8g	8cc	.
8C	8g	8cc	.
8C	8g	8cc	.
.	.	.	16cc
8C	8e	8cc	8g
8C	8e	8cc	8r
8C	8f	8b	8.a-
8C	8f	8b	.
.	.	.	16f
=41	=41	=41	=41
4..C	4..e	4..cc	4..cc
32GG	32g	32g	32g
32EE	32e	32e	32e
4CC	4c	4c	4c
4CC	4c	4c	4c
=42	=42	=42	=42
1CC	1C	1c	1c
=43	=43	=43	=43
2.DD-	2.D-	1d-	2dd-
.	.	.	4f
4GG	4F-	.	4b-
=44	=44	=44	=44
2AA-	2E-	2c	4..g-
.	.	.	16e-
4..r	4r	4r	8c
.	.	.	8r
.	[4A-	[4e-	4g-
16CC	.	.	.
=45	=45	=45	=45
8DD-	4A-]	8.e-]	4..f
16r	.	.	.
16DD-	.	16A-	.
8FF	8.A-	8.d-	.
16r	.	.	.
16FF	16A-	16d-	32g-
.	.	.	32f
8AA-	4A-	8.d-	8.e-
16r	.	.	.
16AA-	.	32e-	16A-
.	.	32d-	.
8C	4r	8.c	8.a-
16r	.	.	.
16DD	.	16f	16a-
=46	=46	=46	=46
8EE-	4B-	8.f	4..g-
16r	.	.	.
16EE-	.	16B-	.
8GG-	8.B-	8.e-	.
16r	.	.	.
16GG-	16B-	16e-	32a-
.	.	.	32g-
8BB-	4B-	4e-	8.f
16r	.	.	.
16BB-	.	.	16B-
8D-	4r	8.d-	8.b-
16r	.	.	.
16EE	.	16g	16b-
=47	=47	=47	=47
8FF	4c	8.g	4..a-
16r	.	.	.
16FF	.	16c	.
8AA-	8.c	8.f	.
16r	.	.	.
16AA-	16c	16f	32b-
.	.	.	32a-
8C	4c	8.f	8.g
16r	.	.	.
16C	.	32g	16c
.	.	32f	.
8E	8.c	8.e	8.cc
16r	.	.	.
16E	16c	16g	16b-
=48	=48	=48	=48
8F	8c	8a-	8a-
8r	8r	8r	16r
.	.	.	16f
8.E	8.c	8.g	8.cc
16E	16c	16g	16b-
8F	8c	8a-	8a-
8r	8r	8r	16r
.	.	.	16f
8.E	8.c	8.g	8.cc
16E	16c	16g	16b-
=49	=49	=49	=49
8F	8c	8a-	8a-
16r	16r	16r	16r
16F	16c	16f	16a-
8G	8c	8e	8g
16r	16r	16r	16r
16G	16c	16e	16g
8A-	8c	8f	8f
16r	16r	16r	16r
16A-	16c	16f	16f
8A	8c	8e-	8f
16r	16r	16r	16r
16A	16c	16e-	16f
=50	=50	=50	=50
4B-	8B-	8d	8f
.	16r	16r	16r
.	16b-	16d	16f
4..r	8B-	8e-	8g
.	2r	16r	16r
.	.	16e	16g
.	.	8f	8a-
.	.	4r	6..r
16AA	.	.	.
8BB-	.	.	.
8r	16r	16r	.
.	.	.	48r
.	16b-	16d	16f
=51	=51	=51	=51
2r	8B-	8e-	8g
.	2.r	16r	16r
.	.	16e	16g
.	.	8f	8a-
.	.	16r	16r
.	.	16f#	16a
8.r	.	8g	8b-
.	.	4r	6..r
16AA	.	.	.
8BB-	.	.	.
8r	16r	16r	.
.	.	.	48r
.	16b-	16e	16g
=52	=52	=52	=52
2r	8B-	8f	8a-
.	2r	16r	16r
.	.	16f#	16a
.	.	8g	8b-
.	.	16r	16r
.	.	16g	16b
8.r	.	8a-	8cc
.	16r	4r	6..r
16d	16f	.	.
8d	8f	.	.
8r	8r	16r	.
.	.	.	48r
.	.	16a-	16cc
=53	=53	=53	=53
8.r	8.r	8a-	8cc
.	.	4r	6..r
16d	16f	.	.
8d	8f	.	.
4r	4r	16r	.
.	.	.	48r
.	.	16a-	16b
.	.	8a-	8b
16r	16r	4r	6..r
16d	16f	.	.
8d	8f	.	.
8r	8r	16r	.
.	.	.	48r
.	.	16b-	16aa-
=54	=54	=54	=54
8.r	8.r	8b-	8aa-
.	.	2..r	4.r
16d	16f	.	.
8d	8f	.	.
2r	2r	.	.
.	.	.	2r
8r	8r	.	.
=55	=55	=55	=55
2EE-	2E-	2e-	2ee-
2EE	2c	2g	4g
.	.	.	4cc
=56	=56	=56	=56
2FF	2c	2c	4..a-
.	.	.	16f
8BB-	8F	8A-	8d
4r	4.r	4r	6..r
16r	.	16r	.
.	.	.	48r
16A-	.	16B-	16d
=57	=57	=57	=57
4G	2.r	2.B-	4e-
4D	.	.	4f
4E-	.	.	4g
4AA-	4f	4c	4a-
=58	=58	=58	=58
2.BB-	2e-	2B-	2g
.	4d	2r	8f
.	.	.	8r
8.AA-	8.f	.	[48A
.	.	.	192A]
.	.	.	[48B-
.	.	.	192B-]
.	.	.	[48c
.	.	.	192c]
.	.	.	[48d
.	.	.	192d]
.	.	.	48e-
.	.	.	48f
.	.	.	48g
.	.	.	48a-
16FF	16d	.	48b-
.	.	.	48cc
.	.	.	48dd
=59	=59	=59	=59
2EE-	2e-	8e-	8ee-
.	.	8e-	8ee-
.	.	8e-	8ee-
.	.	8e-	8ee-
4GG	4G	8e-	8ee-
.	.	8d	8dd
4C	4c	8e-	8ee-
.	.	8e	8ee
=60	=60	=60	=60
4..AA-	4..A-	8f	8ff
.	.	8f	8ff
.	.	8f	8ff
.	.	8f	8ff
16FF	16F	.	.
8DD	8D	8f	8ff
4.r	8r	8e	8ee
.	8.b- 8.d	8f	8ff
.	.	8f	8ff
.	16d 16b-	.	.
=61	=61	=61	=61
2e-	8b- 8e-	8g-	[3..gg-
.	8b-	8g-	.
.	8b-	8g-	.
.	8b-	8g-	.
4G-	8b-	8ee-	.
.	.	.	24gg-]
.	8b-	8ee-	8gg-
4c-	8b-	8ee-	8gg-
.	8e-	8gg-	8gg-
=62	=62	=62	=62
4..A-	8e-	8gg-	4bb
.	8e-	8gg-	.
.	8e-	8gg-	[6..bb
.	8e-	8gg-	.
16F	.	.	.
8D-	8a-	8ff	.
.	.	.	48bb]
.	.	.	16bb-
4.r	8a-	8ff	16bb
.	.	.	16bb-
.	8a-	8ff	16bb
.	.	.	16eee-
.	8f	8aa-	16ddd-
.	.	.	16bb
=63	=63	=63	=63
4G-	8d-	8aa-	8bb-
.	8d-	8aa-	4bb-
4B-	8d-	8gg-	.
.	8d-	8gg-	8bb-
4d-	8d-	8gg-	8aa-
.	8d-	8gg-	8.aa-
4d	8b-	8ff	.
.	.	.	16bb
.	8b-	8ff	16bb-
.	.	.	16aa-
=64	=64	=64	=64
4e-	8b-	8ff	8gg-
.	8b-	8ff	4gg-
4g-	8b-	8ee-	.
.	8b-	8ee-	16bb-
.	.	.	16gg-
4b-	8b-	8dd	8ff
.	8b-	8dd	8ff
4a	8a	8ee-	8gg-
.	8a	16dd	16ff
.	.	16ee-	16gg-
=65	=65	=65	=65
4b-	8b-	8dd	8ff
.	8b-	8dd	8bb-
2.r	8b-	8dd	8bb-
.	8b-	8dd	8bb-
.	8cc	8ee-	8bb-
.	8cc	8ee-	8bb-
.	8dd	8ff	8bb-
.	8dd	8ff	8bb-
=66	=66	=66	=66
1r	2ee-	[2gg	[2bb-
.	4g	8.gg]	8.bb-]
.	.	32aa-	32ccc
.	.	32gg	32bb-
.	4cc	8.ff	8.aa-
.	.	16ee	16gg
=67	=67	=67	=67
1r	4..a-	4ff	4aa-
.	.	8.ff	8.aa-
.	16f	16gg	16bb-
.	8d	8aa-	8ccc
.	4r	4r	4r
.	16r	16r	8ccc
.	16d	16aa-	.
=68	=68	=68	=68
1r	8e-	8gg	8bb-
.	16r	16r	16r
.	16e-	16gg	16bb-
.	8f	8ff	8aa-
.	16r	16r	16r
.	16f	16ff	16aa-
.	8g	8ee-	8gg
.	16r	16r	16r
.	16g	16ee-	16gg
.	8a-	8cc	16ff
.	.	.	16gg
.	16r	16r	16aa-
.	16A-	16cc	16ff
=69	=69	=69	=69
1r	2.B-	2g	[2ee-
.	.	4f	16ee-]
.	.	.	16dd
.	.	.	16ff
.	.	.	16ee-
.	4r	4r	16gg
.	.	.	16ff
.	.	.	16aa-
.	.	.	16gg
=70	=70	=70	=70
2.BB-	2.f	2.d	4..aa-
.	.	.	16ff
.	.	.	16dd
.	.	.	16b-
.	.	.	16a
.	.	.	16b-
4AA-	8.d	4f	32cc
.	.	.	32dd
.	.	.	32ee-
.	.	.	32ff
.	.	.	32gg
.	.	.	32aa-
.	16f	.	16aa
=71	=71	=71	=71
4GG	4g	2e-	8.bb-
.	.	.	16aa-
4G	4E-	.	32gg
.	.	.	32bb-
.	.	.	32aa-
.	.	.	32gg
.	.	.	32ff
.	.	.	32aa-
.	.	.	32gg
.	.	.	32ff
4..r	4..r	4g	32ee-
.	.	.	32ff
.	.	.	32gg
.	.	.	32ff
.	.	.	32ee-
.	.	.	32dd
.	.	.	32cc
.	.	.	32b-
.	.	8.r	32a-
.	.	.	32g
.	.	.	32f
.	.	.	32e-
.	.	.	32d
.	.	.	32c
16GG	16G	16e-	16B
=72	=72	=72	=72
8AA-	8A-	8e-	16c
.	.	.	16d
2r	2.r	2.r	16e-
.	.	.	16e
.	.	.	16f
.	.	.	16g
.	.	.	16a-
.	.	.	16b
.	.	.	16cc
.	.	.	16ee
8r	.	.	16ff
.	.	.	16gg
4AA	.	.	16aa-
.	.	.	16bb-
.	16e-	8f	16ccc
.	16c	.	16ee-
=73	=73	=73	=73
8BB-	8d	8f	4..bb-
8BB-	8d	8f	.
8BB-	8d	8f	.
8BB-	8d	8f	.
.	.	.	32ff
.	.	.	32dd
8BB-	8d	8f	8b-
8BB-	8d	8f	6..r
8BB-	8d	8f	.
8BB-	8d	8f	.
.	.	.	48r
.	.	.	16bb-
=74	=74	=74	=74
8BB-	8e-	8g-	4.aa
8BB-	8e-	8g-	.
8BB-	8e-	8g-	.
8BB-	8e-	8g-	24gg-
.	.	.	24ee-
.	.	.	24cc
8BB-	8e-	8g-	24a
.	.	.	24cc
.	.	.	24ee-
8BB-	8e-	8g-	8gg-
8BB-	8e-	8g-	8.r
8BB-	8c	8e-	.
.	.	.	16aa-
=75	=75	=75	=75
8BB-	8B-	8d	16aa-
.	.	.	16gg
8BB-	8c	8e-	16gg
.	.	.	16gg-
8BB-	8d	8f	16gg-
.	.	.	16ff
8BB-	8e-	8g	16ff
.	.	.	16ee-
8BB-	8f	8a-	16ee-
.	.	.	16dd
8BB-	8e-	8g	16dd
.	.	.	16cc
8BB-	8d	8f	16cc
.	.	.	16b-
8BB-	8d	8f	16cc
.	.	.	16a-
=76	=76	=76	=76
8BB-	8e-	8e-	16a-
.	.	.	16g
8BB-	8e-	8g	16cc
.	.	.	16b-
8BB-	8e-	8g	16dd
.	.	.	16ee-
8BB-	8e-	8g	16ff
.	.	.	16ee-
8BB-	8e-	8g	16ccc
.	.	.	16bb-
8BB-	8e-	8g	6..r
8BB-	8e-	8g	.
8BB-	8e-	8g	.
.	.	.	48r
.	.	.	16ee-
=77	=77	=77	=77
8BB-	8f	8a-	16dd
.	.	.	16ee-
8BB-	8e-	8g	16ee-
.	.	.	16ee
8BB-	8d	8f	16ee
.	.	.	16ff
8BB-	8c	8e-	16ff
.	.	.	16gg
8BB-	8B-	8d	16gg
.	.	.	16aa-
8BB-	8B-	8d	16aa-
.	.	.	16bb-
8BB-	8B-	8d	16bb-
.	.	.	16bb
8BB-	8B-	8d	16.ccc
.	.	.	32aa-
=78	=78	=78	=78
8C	8c	8d	8.aa-
8C	8c	8e-	.
.	.	.	16gg
8C	8c	8e-	8gg
8C	8c	8e-	16r
.	.	.	16gg
8C	8c	8e-	8gg
8C	8c	8e-	6..r
8BB-	8c	8e-	.
8BB-	8c	8e-	.
.	.	.	48r
.	.	.	16gg
=79	=79	=79	=79
8AA	8c	8e-	16gg
.	.	.	16gg-
8AA	8c	8e-	16gg-
.	.	.	16ff
8AA	8c	8e-	16ff
.	.	.	16ccc
8AA	8c	8e-	16ccc
.	.	.	16ccc
8AA	8c	8e-	16ee
.	.	.	16ff
8AA	8c	8e-	16gg
.	.	.	16ff
8AA	8c	8e-	16ff
.	.	.	16ccc
8AA	8c	8e-	16ccc
.	.	.	16ccc
=80	=80	=80	=80
8AA-	8B-	8dd 8f	16ff
.	.	.	16bb-
8r	8r	8r	16bb-
.	.	.	16bb-
8GG	8B-	8ee- 8e-	16b-
.	.	.	16bb-
8r	8r	8r	16bb-
.	.	.	16bb-
8BB-	8B-	8aa- 8b- 8d	24d
.	.	.	24b-
.	.	.	24aa-
8r	8r	8r	16aa-
.	.	.	16aa-
8EE-	8B-	8gg 8e- 8b-	24e-
.	.	.	24b-
.	.	.	24gg
8r	8r	8r	16gg
.	.	.	16gg
=81	=81	=81	=81
4GG	4A-	8ff 8a- 8cc	4ff
.	.	4.r	.
4r	4r	.	4r
4AA-	4A-	8dd 8f 8B-	4dd
.	.	4.r	.
4r	4r	.	4r
=82	=82	=82	=82
2E-	8G	8g	4ee-
.	8e-	8g	.
.	8e-	8g	4r
.	8e-	8g	.
4GG	8e-	8g	2r
.	8e-	8g	.
4C	8e-	8g	.
.	8e-	8g	.
=83	=83	=83	=83
4..AA-	8e-	8f	[3..cc
.	8e-	8f	.
.	8e-	8f	.
.	8e-	8f	.
16FF	.	.	.
4..AA	8e-	8g-	.
.	.	.	24cc]
.	8e-	8g-	8cc
.	8e-	8g-	8dd
.	8e-	8g-	8ee-
16AA	.	.	.
=84	=84	=84	=84
8BB-	8e-	8g	[3..b-
8BB-	8e-	8g	.
8BB-	8e-	8g	.
8BB-	8e-	8g	.
8BB-	8f	8a-	.
.	.	.	24b-]
8BB-	8A-	8f	8B-
8BB-	8A-	8f	8c
8BB-	8A-	8f	8d
=85	=85	=85	=85
8EE-	4G	2g	2ee-
8EE-	.	.	.
8EE-	4B-	.	.
8EE-	.	.	.
8EE-	4d-	4b-	4g
8EE-	.	.	.
8EE-	4c	4a-	4cc
8EE-	.	.	.
=86	=86	=86	=86
8EE-	[2c-	[2d	4..a-
8EE-	.	.	.
8EE-	.	.	.
8EE-	.	.	.
.	.	.	16f
8EE-	8c-]	8d]	8d
8EE-	8c-	8A- 8d	4.r
8EE-	8c-	8d 8A-	.
8EE-	8c-	8A- 8d	.
=87	=87	=87	=87
8EE-	[2B-	[2G	4..b-
8EE-	.	.	.
8EE-	.	.	.
8EE-	.	.	.
.	.	.	16g
8EE-	8B-]	8G] 8e-	8e-
8EE-	8B-	8e- 8G	4.r
8EE-	8B-	8G 8e-	.
8EE-	8B-	8G 8e-	.
=88	=88	=88	=88
8EE-	[2c-	[2d	4..f
8EE-	.	.	.
8EE-	.	.	.
8EE-	.	.	.
.	.	.	16d
8EE-	8c-]	8d] 8A-	4B
8EE-	8c-	8A- 8d	.
8EE-	8c-	8d 8A-	8B-
8EE-	8c-	8A- 8d	8A-
=89	=89	=89	=89
2EE-	2B-	2e- 2G	4..G
.	.	.	16B-
8EE-	8G	8B-	[12..e-
8r	8r	8r	.
.	.	.	96e-]
.	.	.	16.r
8EE-	8G	8B-	8e-
8r	8r	8r	8r
=90	=90	=90	=90
1EE-	1G	1B-	1e-
==	==	==	==
*-	*-	*-	*-
!!!RWG1: This file contains only pitch and duration data.
!!!RWG2: Transposing instruments are not transposed.
!!!RWG3: Spines may have incompatible meters.
!!!RWG4: Durations of rests and tied notes may be interpreted.
!!!RWG: Key is interpreted using the Humdrum key tool.
!!!GTL: 2 Quartetti ("Lobkowitz")
!!!AFT: stage1
!!!END: 1997/04/15
!!!KEY: 1748158516
!!!EMD: Converted from MuseData to Humdrum Dec 16, 2000, by Andreas Kornstaedt using muse2kern.
!!!EMD: Manual editing by Craig Sapp, Nov 2001
